X:1
T:St.Thomas
C:1956 - Sonny Rollins
Z:Copyright © www.realbook.site
L:1/4
M:4/4
I:linebreak $
K:C
V:1 treble nm=" " snm=" "
V:1
"C" z G/c/"F7" z/ B/ z/ A/ |"Em7" G A"A7" E F |"Dm7" G c"G7" B c |"C" z4 |$ %4
"C" z G/c/"F7" z/ B/ z/ A/ |"Em7" G A"A7" E F |"Dm7" G c"G7" B c |"C" z4 |$ %8
"Em7b5" e2"Bb7" f3/2 g/ |"A7" z4 |"Dm7" f2"Ab7" e3/2 d/ |"G7" z4 |$"C" e2"C7/E" d2 | %13
"F" c2"F#dim7" A2 |"C/G" G c"G7" B c |"C" z4 |] %16

